;FLAVOR:Marlin
;TIME:8434
;Filament used: 13.9966m
;Layer height: 0.2
;MINX:55.324
;MINY:87.213
;MINZ:0.2
;MAXX:179.676
;MAXY:147.787
;MAXZ:31
;TARGET_MACHINE.NAME:ELEGOO NEPTUNE 3 Pro
;Generated with Cura_SteamEngine 5.9.0
M140 S70
M105
M190 S70
M104 S210
M105
M109 S210
M82 ;absolute extrusion mode
;ELEGOO NEPTUNE 3 Pro
M220 S100 ;Set the feed speed to 100%
M221 S100 ;Set the flow rate to 100%
G90
G28 ;home
;M420 S1 Z10;Uncomment to enable progressive compensation height of 10mm
G92 E0 ;Reset Extruder
G1 Z0.45 F300
G1 X1.5 Y20 F5000.0 ;Move to start position
G1 Y120.0 F600.0 E15 ;Draw the first line
G1 X0.5 F1000.0 ;Move to side a little
G1 Y20 F600 E30 ;Draw the second line
G92 E0 ;Reset Extruder
G92 E0
G92 E0
G1 F1500 E-1
;LAYER_COUNT:155
;LAYER:0
M107
M204 S500
G0 F6000 X81.72 Y147.78 Z0.2
;TYPE:SKIRT
G1 F1500 E0
G1 F1800 X79.675 Y147.416 E0.0943
G1 X77.613 Y146.908 E0.19072
G1 X75.551 Y146.254 E0.28893
G1 X74.001 Y145.649 E0.36447
G1 X72.075 Y144.752 E0.46093
G1 X70.441 Y143.86 E0.54544
G1 X68.546 Y142.659 E0.6473
G1 X67.01 Y141.531 E0.73382
G1 X65.545 Y140.304 E0.82058
G1 X64.165 Y138.989 E0.90712
G1 X62.676 Y137.375 E1.00681
G1 X61.518 Y135.939 E1.09057
G1 X60.378 Y134.33 E1.18009
G1 X59.255 Y132.489 E1.278
G1 X58.448 Y130.956 E1.35665
G1 X57.551 Y128.943 E1.4567
G1 X56.879 Y127.114 E1.54517
G1 X56.375 Y125.434 E1.6248
G1 X55.868 Y123.229 E1.72752
G1 X55.6 Y121.588 E1.803
G1 X55.377 Y119.285 E1.90805
G1 X55.324 Y117.319 E1.99734
G1 X55.378 Y115.682 E2.0717
G1 X55.605 Y113.364 E2.17744
G1 X55.877 Y111.712 E2.25345
G1 X56.367 Y109.588 E2.35241
G1 X56.962 Y107.629 E2.44536
G1 X57.559 Y106.026 E2.52302
G1 X58.497 Y103.936 E2.62703
G1 X59.275 Y102.467 E2.7025
G1 X60.488 Y100.504 E2.80726
G1 X61.472 Y99.121 E2.88432
G1 X62.878 Y97.389 E2.9856
G1 X64.018 Y96.156 E3.06184
G1 X65.672 Y94.587 E3.16534
G1 X67.139 Y93.372 E3.25182
G1 X68.628 Y92.287 E3.33546
G1 X70.323 Y91.211 E3.42661
G1 X72.26 Y90.154 E3.52679
G1 X73.862 Y89.413 E3.60693
G1 X75.896 Y88.627 E3.70593
G1 X77.468 Y88.132 E3.78075
G1 X79.734 Y87.577 E3.88667
G1 X81.82 Y87.213 E3.9828
G1 X153.28 Y87.22 E7.22709
G1 X155.325 Y87.584 E7.32139
G1 X157.387 Y88.092 E7.41781
G1 X159.449 Y88.746 E7.51602
G1 X160.999 Y89.351 E7.59156
G1 X162.893 Y90.232 E7.6864
G1 X164.56 Y91.141 E7.7726
G1 X166.423 Y92.323 E7.87277
G1 X168.071 Y93.534 E7.96561
G1 X169.428 Y94.671 E8.04599
G1 X170.835 Y96.011 E8.1342
G1 X172.323 Y97.624 E8.23383
G1 X173.461 Y99.034 E8.31609
G1 X174.64 Y100.699 E8.40872
G1 X175.744 Y102.51 E8.50501
G1 X176.552 Y104.044 E8.58372
G1 X177.449 Y106.056 E8.68374
G1 X178.121 Y107.885 E8.7722
G1 X178.625 Y109.566 E8.85187
G1 X179.132 Y111.771 E8.95459
G1 X179.4 Y113.411 E9.03004
G1 X179.623 Y115.715 E9.13513
G1 X179.676 Y117.681 E9.22442
G1 X179.622 Y119.318 E9.29878
G1 X179.395 Y121.636 E9.40452
G1 X179.123 Y123.288 E9.48053
G1 X178.633 Y125.412 E9.57949
G1 X178.038 Y127.371 E9.67244
G1 X177.441 Y128.974 E9.7501
G1 X176.503 Y131.064 E9.85411
G1 X175.725 Y132.533 E9.92957
G1 X174.512 Y134.496 E10.03434
G1 X173.528 Y135.879 E10.1114
G1 X172.122 Y137.611 E10.21268
G1 X170.982 Y138.844 E10.28891
G1 X169.328 Y140.413 E10.39242
G1 X167.861 Y141.628 E10.4789
G1 X166.372 Y142.713 E10.56254
G1 X164.677 Y143.789 E10.65369
G1 X162.74 Y144.846 E10.75387
G1 X161.138 Y145.587 E10.834
G1 X159.104 Y146.373 E10.933
G1 X157.532 Y146.868 E11.00783
G1 X155.266 Y147.423 E11.11374
G1 X153.18 Y147.787 E11.20988
G1 X81.72 Y147.78 E14.45417
G0 F6000 X81.771 Y147.234
G1 F1800 X79.771 Y146.878 E14.5464
G1 X77.778 Y146.388 E14.63957
G1 X75.75 Y145.745 E14.73616
G1 X74.2 Y145.14 E14.8117
G1 X72.337 Y144.273 E14.90499
G1 X70.703 Y143.381 E14.98951
G1 X68.869 Y142.219 E15.08808
G1 X67.361 Y141.112 E15.17301
G1 X65.896 Y139.885 E15.25977
G1 X64.542 Y138.594 E15.3447
G1 X63.101 Y137.032 E15.44119
G1 X61.964 Y135.623 E15.52339
G1 X60.824 Y134.014 E15.61291
G1 X59.738 Y132.234 E15.70758
G1 X58.947 Y130.733 E15.78461
G1 X58.064 Y128.755 E15.88295
G1 X57.392 Y126.926 E15.97141
G1 X56.898 Y125.277 E16.04956
G1 X56.407 Y123.141 E16.14907
G1 X56.139 Y121.5 E16.22456
G1 X55.923 Y119.27 E16.32627
G1 X55.87 Y117.337 E16.41406
G1 X55.924 Y115.7 E16.48842
G1 X56.144 Y113.453 E16.59093
G1 X56.416 Y111.801 E16.66694
G1 X56.89 Y109.746 E16.76268
G1 X57.474 Y107.82 E16.85406
G1 X58.071 Y106.217 E16.93172
G1 X58.98 Y104.192 E17.03249
G1 X59.758 Y102.723 E17.10796
G1 X60.933 Y100.821 E17.20946
G1 X61.917 Y99.438 E17.28652
G1 X63.279 Y97.76 E17.38463
G1 X64.419 Y96.527 E17.46087
G1 X66.02 Y95.008 E17.56107
G1 X67.487 Y93.793 E17.64755
G1 X68.921 Y92.748 E17.7281
G1 X70.616 Y91.672 E17.81925
G1 X72.489 Y90.65 E17.91612
G1 X74.091 Y89.909 E17.99626
G1 X76.06 Y89.148 E18.09209
G1 X77.632 Y88.653 E18.16692
G1 X79.828 Y88.115 E18.26956
G1 X81.868 Y87.759 E18.36358
G1 X153.229 Y87.766 E21.60337
G1 X155.229 Y88.122 E21.6956
G1 X157.222 Y88.612 E21.78878
G1 X159.25 Y89.255 E21.88537
G1 X160.8 Y89.86 E21.96091
G1 X162.663 Y90.727 E22.0542
G1 X164.267 Y91.602 E22.13715
G1 X166.13 Y92.784 E22.23732
G1 X167.72 Y93.953 E22.32692
G1 X169.077 Y95.09 E22.40729
G1 X170.458 Y96.406 E22.4939
G1 X171.898 Y97.967 E22.59031
G1 X173.015 Y99.35 E22.67102
G1 X174.194 Y101.015 E22.76365
G1 X175.261 Y102.765 E22.8567
G1 X176.053 Y104.267 E22.93379
G1 X176.936 Y106.244 E23.03209
G1 X177.608 Y108.073 E23.12056
G1 X178.102 Y109.723 E23.19875
G1 X178.593 Y111.859 E23.29826
G1 X178.861 Y113.499 E23.3737
G1 X179.077 Y115.73 E23.47546
G1 X179.13 Y117.663 E23.56325
G1 X179.076 Y119.3 E23.63761
G1 X178.856 Y121.547 E23.74012
G1 X178.584 Y123.199 E23.81613
G1 X178.11 Y125.254 E23.91187
G1 X177.526 Y127.18 E24.00324
G1 X176.929 Y128.783 E24.0809
G1 X176.02 Y130.808 E24.18168
G1 X175.242 Y132.277 E24.25715
G1 X174.067 Y134.179 E24.35865
G1 X173.083 Y135.562 E24.4357
G1 X171.721 Y137.24 E24.53382
G1 X170.581 Y138.473 E24.61006
G1 X168.98 Y139.992 E24.71026
G1 X167.513 Y141.207 E24.79673
G1 X166.079 Y142.252 E24.87729
G1 X164.384 Y143.328 E24.96844
G1 X162.511 Y144.35 E25.06531
G1 X160.909 Y145.091 E25.14544
G1 X158.94 Y145.852 E25.24128
G1 X157.368 Y146.347 E25.3161
G1 X155.172 Y146.885 E25.41875
G1 X153.132 Y147.241 E25.51277
G1 X81.771 Y147.234 E28.75256
G0 F6000 X81.822 Y146.688
G1 F1800 X79.867 Y146.34 E28.84272
G1 X77.909 Y145.858 E28.93426
G1 X75.949 Y145.236 E29.02762
G1 X74.399 Y144.631 E29.10316
G1 X72.568 Y143.778 E29.19487
G1 X70.965 Y142.902 E29.2778
G1 X69.192 Y141.779 E29.37308
G1 X67.712 Y140.693 E29.45642
G1 X66.247 Y139.466 E29.54318
G1 X64.919 Y138.199 E29.62651
G1 X63.526 Y136.689 E29.71978
G1 X62.41 Y135.307 E29.80043
G1 X61.27 Y133.698 E29.88995
G1 X60.221 Y131.979 E29.98138
G1 X59.446 Y130.51 E30.05678
G1 X58.563 Y128.532 E30.15513
G1 X57.915 Y126.769 E30.2404
G1 X57.421 Y125.12 E30.31855
G1 X56.946 Y123.053 E30.41484
G1 X56.678 Y121.412 E30.49033
G1 X56.469 Y119.255 E30.58872
G1 X56.416 Y117.355 E30.67501
G1 X56.47 Y115.718 E30.74937
G1 X56.683 Y113.542 E30.84863
G1 X56.955 Y111.89 E30.92464
G1 X57.422 Y109.869 E31.01882
G1 X57.986 Y108.011 E31.10697
G1 X58.583 Y106.408 E31.18463
G1 X59.463 Y104.448 E31.28217
G1 X60.241 Y102.979 E31.35764
G1 X61.378 Y101.138 E31.45588
G1 X62.362 Y99.755 E31.53294
G1 X63.68 Y98.131 E31.62789
G1 X64.82 Y96.898 E31.70413
G1 X66.368 Y95.429 E31.80102
G1 X67.835 Y94.214 E31.8875
G1 X69.214 Y93.209 E31.96496
G1 X70.909 Y92.133 E32.05611
G1 X72.718 Y91.146 E32.14967
G1 X74.32 Y90.405 E32.22981
G1 X76.224 Y89.669 E32.32248
G1 X77.796 Y89.174 E32.3973
G1 X79.922 Y88.653 E32.49668
G1 X81.916 Y88.305 E32.58858
G1 X153.178 Y88.312 E35.82388
G1 X155.133 Y88.66 E35.91403
G1 X157.091 Y89.142 E36.00558
G1 X159.051 Y89.764 E36.09894
G1 X160.601 Y90.369 E36.17448
G1 X162.432 Y91.222 E36.26618
G1 X164.005 Y92.081 E36.34755
G1 X165.807 Y93.224 E36.44443
G1 X167.369 Y94.372 E36.53244
G1 X168.726 Y95.509 E36.61281
G1 X170.081 Y96.801 E36.69781
G1 X171.473 Y98.31 E36.79102
G1 X172.569 Y99.666 E36.87018
G1 X173.748 Y101.331 E36.9628
G1 X174.778 Y103.02 E37.05261
G1 X175.554 Y104.49 E37.12808
G1 X176.437 Y106.467 E37.22638
G1 X177.085 Y108.23 E37.31166
G1 X177.579 Y109.88 E37.38985
G1 X178.054 Y111.947 E37.48614
G1 X178.322 Y113.587 E37.56159
G1 X178.531 Y115.745 E37.66002
G1 X178.584 Y117.645 E37.74631
G1 X178.53 Y119.282 E37.82067
G1 X178.317 Y121.458 E37.91993
G1 X178.045 Y123.11 E37.99594
G1 X177.578 Y125.131 E38.09012
G1 X177.014 Y126.989 E38.17827
G1 X176.417 Y128.592 E38.25593
G1 X175.537 Y130.552 E38.35347
G1 X174.759 Y132.021 E38.42894
G1 X173.622 Y133.862 E38.52718
G1 X172.638 Y135.245 E38.60424
G1 X171.32 Y136.869 E38.69919
G1 X170.18 Y138.102 E38.77543
G1 X168.632 Y139.571 E38.87232
G1 X167.165 Y140.786 E38.9588
G1 X165.786 Y141.791 E39.03626
G1 X164.091 Y142.867 E39.12741
G1 X162.282 Y143.854 E39.22097
G1 X160.68 Y144.595 E39.30111
G1 X158.776 Y145.331 E39.39378
G1 X157.204 Y145.826 E39.4686
G1 X155.078 Y146.347 E39.56798
G1 X153.084 Y146.695 E39.65988
G1 X81.822 Y146.688 E42.89518
G0 F6000 X81.873 Y146.142
G1 F1800 X79.963 Y145.802 E42.98326
G1 X78.074 Y145.337 E43.07158
G1 X76.148 Y144.727 E43.1633
G1 X74.598 Y144.122 E43.23884
G1 X72.83 Y143.299 E43.32738
G1 X71.227 Y142.423 E43.41031
G1 X69.515 Y141.339 E43.50231
G1 X68.063 Y140.274 E43.58406
G1 X66.598 Y139.047 E43.67082
G1 X65.296 Y137.804 E43.75254
G1 X63.951 Y136.346 E43.8426
G1 X62.856 Y134.991 E43.92169
G1 X61.716 Y133.382 E44.01121
G1 X60.704 Y131.724 E44.0994
G1 X59.929 Y130.255 E44.17481
G1 X59.075 Y128.344 E44.26984
G1 X58.438 Y126.612 E44.35362
G1 X57.944 Y124.963 E44.43177
G1 X57.485 Y122.965 E44.52484
G1 X57.217 Y121.324 E44.60033
G1 X57.015 Y119.239 E44.69543
G1 X56.962 Y117.373 E44.78018
G1 X57.016 Y115.736 E44.85454
G1 X57.222 Y113.631 E44.95057
G1 X57.494 Y111.979 E45.02658
G1 X57.945 Y110.027 E45.11753
G1 X58.498 Y108.202 E45.20411
G1 X59.095 Y106.599 E45.28177
G1 X59.946 Y104.704 E45.37608
G1 X60.724 Y103.235 E45.45155
G1 X61.823 Y101.455 E45.54652
G1 X62.807 Y100.072 E45.62358
G1 X64.081 Y98.502 E45.71537
G1 X65.221 Y97.269 E45.79161
G1 X66.716 Y95.85 E45.88519
G1 X68.183 Y94.635 E45.97167
G1 X69.507 Y93.67 E46.04605
G1 X71.202 Y92.594 E46.1372
G1 X72.947 Y91.642 E46.22745
G1 X74.549 Y90.901 E46.30758
G1 X76.388 Y90.19 E46.39709
G1 X77.96 Y89.695 E46.47192
G1 X80.016 Y89.191 E46.56802
G1 X81.964 Y88.851 E46.6578
G1 X153.127 Y88.858 E49.88861
G1 X155.037 Y89.198 E49.97668
G1 X156.926 Y89.663 E50.06501
G1 X158.852 Y90.273 E50.15673
G1 X160.402 Y90.878 E50.23227
G1 X162.17 Y91.701 E50.32081
G1 X163.743 Y92.56 E50.40217
G1 X165.484 Y93.664 E50.49577
G1 X167.018 Y94.791 E50.58219
G1 X168.375 Y95.928 E50.66256
G1 X169.704 Y97.196 E50.74596
G1 X171.048 Y98.653 E50.83595
G1 X172.123 Y99.982 E50.91355
G1 X173.302 Y101.647 E51.00618
G1 X174.295 Y103.275 E51.09275
G1 X175.071 Y104.745 E51.16822
G1 X175.925 Y106.656 E51.26325
G1 X176.562 Y108.387 E51.34699
G1 X177.056 Y110.037 E51.42518
G1 X177.515 Y112.035 E51.51825
G1 X177.783 Y113.675 E51.5937
G1 X177.985 Y115.76 E51.6888
G1 X178.038 Y117.627 E51.7736
G1 X177.984 Y119.264 E51.84796
G1 X177.778 Y121.369 E51.94398
G1 X177.506 Y123.021 E52.01999
G1 X177.055 Y124.973 E52.11095
G1 X176.502 Y126.798 E52.19752
G1 X175.905 Y128.401 E52.27518
G1 X175.054 Y130.296 E52.36949
G1 X174.276 Y131.765 E52.44496
G1 X173.177 Y133.545 E52.53993
G1 X172.193 Y134.928 E52.61699
G1 X170.919 Y136.498 E52.70879
G1 X169.779 Y137.731 E52.78503
G1 X168.284 Y139.15 E52.8786
G1 X166.817 Y140.365 E52.96508
G1 X165.493 Y141.33 E53.03946
G1 X163.798 Y142.406 E53.13061
G1 X162.053 Y143.358 E53.22086
G1 X160.451 Y144.099 E53.30099
G1 X158.612 Y144.81 E53.39051
G1 X157.04 Y145.305 E53.46533
G1 X154.984 Y145.809 E53.56144
G1 X153.036 Y146.149 E53.65121
G1 X81.873 Y146.142 E56.88202
G0 F6000 X81.924 Y145.596
G1 F1800 X80.059 Y145.264 E56.96802
G1 X78.205 Y144.807 E57.05471
G1 X76.347 Y144.218 E57.1432
G1 X74.797 Y143.613 E57.21874
G1 X73.061 Y142.804 E57.3057
G1 X71.489 Y141.944 E57.38705
G1 X69.838 Y140.899 E57.47576
G1 X68.414 Y139.855 E57.55592
G1 X66.949 Y138.628 E57.64268
G1 X65.673 Y137.409 E57.72279
G1 X64.376 Y136.003 E57.80964
G1 X63.302 Y134.675 E57.88718
G1 X62.162 Y133.066 E57.9767
G1 X61.187 Y131.469 E58.06165
G1 X60.412 Y130 E58.13706
G1 X59.587 Y128.155 E58.22881
G1 X58.961 Y126.455 E58.31106
G1 X58.476 Y124.84 E58.38762
G1 X58.024 Y122.877 E58.47907
G1 X57.756 Y121.236 E58.55456
G1 X57.561 Y119.223 E58.64638
G1 X57.508 Y117.391 E58.72958
G1 X57.562 Y115.754 E58.80394
G1 X57.761 Y113.72 E58.89673
G1 X58.033 Y112.068 E58.97274
G1 X58.477 Y110.15 E59.06212
G1 X59.01 Y108.393 E59.14548
G1 X59.607 Y106.79 E59.22314
G1 X60.429 Y104.96 E59.31421
G1 X61.207 Y103.491 E59.38968
G1 X62.268 Y101.772 E59.48139
G1 X63.252 Y100.389 E59.55845
G1 X64.482 Y98.873 E59.64708
G1 X65.622 Y97.64 E59.72332
G1 X67.065 Y96.27 E59.81366
G1 X68.505 Y95.076 E59.89858
G1 X69.829 Y94.111 E59.97297
G1 X71.494 Y93.055 E60.06248
G1 X73.176 Y92.138 E60.14945
G1 X74.778 Y91.397 E60.22959
G1 X76.552 Y90.711 E60.31594
G1 X78.124 Y90.216 E60.39076
G1 X80.11 Y89.729 E60.4836
G1 X82.012 Y89.397 E60.57126
G1 X153.076 Y89.404 E63.79757
G1 X154.941 Y89.736 E63.88357
G1 X156.795 Y90.193 E63.97026
G1 X158.653 Y90.782 E64.05875
G1 X160.203 Y91.387 E64.13429
G1 X161.939 Y92.196 E64.22124
G1 X163.481 Y93.039 E64.30103
G1 X165.161 Y94.104 E64.39134
G1 X166.667 Y95.21 E64.47617
G1 X168.024 Y96.347 E64.55654
G1 X169.327 Y97.591 E64.63833
G1 X170.623 Y98.996 E64.72511
G1 X171.698 Y100.325 E64.80271
G1 X172.836 Y101.931 E64.89207
G1 X173.812 Y103.53 E64.97712
G1 X174.588 Y105 E65.05259
G1 X175.413 Y106.845 E65.14435
G1 X176.039 Y108.544 E65.22655
G1 X176.524 Y110.16 E65.30315
G1 X176.976 Y112.123 E65.3946
G1 X177.244 Y113.763 E65.47005
G1 X177.439 Y115.776 E65.56186
G1 X177.492 Y117.609 E65.64512
G1 X177.438 Y119.246 E65.71948
G1 X177.239 Y121.28 E65.81226
G1 X176.967 Y122.932 E65.88827
G1 X176.523 Y124.85 E65.97765
G1 X175.99 Y126.607 E66.06101
G1 X175.393 Y128.21 E66.13867
G1 X174.571 Y130.04 E66.22975
G1 X173.793 Y131.509 E66.30522
G1 X172.732 Y133.228 E66.39693
G1 X171.748 Y134.611 E66.47399
G1 X170.518 Y136.127 E66.56262
G1 X169.378 Y137.36 E66.63886
G1 X167.935 Y138.73 E66.72919
G1 X166.495 Y139.924 E66.81412
G1 X165.171 Y140.889 E66.8885
G1 X163.506 Y141.945 E66.97801
G1 X161.824 Y142.862 E67.06499
G1 X160.222 Y143.603 E67.14512
G1 X158.448 Y144.289 E67.23147
G1 X156.876 Y144.784 E67.3063
G1 X154.89 Y145.271 E67.39913
G1 X152.988 Y145.603 E67.48679
G1 X81.924 Y145.596 E70.7131
G0 F6000 X81.975 Y145.05
G1 F1800 X80.155 Y144.726 E70.79703
G1 X78.336 Y144.277 E70.88209
G1 X76.546 Y143.709 E70.96735
G1 X74.996 Y143.104 E71.04289
G1 X73.323 Y142.325 E71.12667
G1 X71.781 Y141.482 E71.20646
G1 X70.161 Y140.458 E71.29347
G1 X68.765 Y139.436 E71.37202
G1 X67.3 Y138.209 E71.45877
G1 X66.05 Y137.014 E71.53729
G1 X64.801 Y135.66 E71.62092
G1 X63.727 Y134.332 E71.69846
G1 X62.608 Y132.751 E71.78639
G1 X61.67 Y131.214 E71.86814
G1 X60.895 Y129.745 E71.94355
G1 X60.099 Y127.966 E72.03203
G1 X59.484 Y126.298 E72.11274
G1 X58.999 Y124.683 E72.1893
G1 X58.563 Y122.789 E72.27753
G1 X58.295 Y121.148 E72.35302
G1 X58.107 Y119.207 E72.44156
G1 X58.054 Y117.409 E72.52322
G1 X58.108 Y115.772 E72.59758
G1 X58.3 Y113.809 E72.68713
G1 X58.572 Y112.157 E72.76314
G1 X59.009 Y110.273 E72.85094
G1 X59.522 Y108.584 E72.93108
G1 X60.119 Y106.981 E73.00874
G1 X60.912 Y105.216 E73.09659
G1 X61.69 Y103.747 E73.17206
G1 X62.713 Y102.089 E73.26051
G1 X63.697 Y100.706 E73.33757
G1 X64.883 Y99.244 E73.42303
G1 X66.023 Y98.011 E73.49927
G1 X67.441 Y96.666 E73.588
G1 X68.827 Y95.517 E73.66974
G1 X70.151 Y94.552 E73.74412
