;FLAVOR:Marlin
;TIME:21094
;Filament used: 30.7646m
;Layer height: 0.2
;MINX:57.575
;MINY:33.713
;MINZ:0.2
;MAXX:177.425
;MAXY:201.287
;MAXZ:55
;TARGET_MACHINE.NAME:ELEGOO NEPTUNE 3 Pro
;Generated with Cura_SteamEngine 5.9.0
M140 S70
M105
M190 S70
M104 S210
M105
M109 S210
M82 ;absolute extrusion mode
;ELEGOO NEPTUNE 3 Pro
M220 S100 ;Set the feed speed to 100%
M221 S100 ;Set the flow rate to 100%
G90
G28 ;home
;M420 S1 Z10;Uncomment to enable progressive compensation height of 10mm
G92 E0 ;Reset Extruder
G1 Z0.45 F300
G1 X1.5 Y20 F5000.0 ;Move to start position
G1 Y120.0 F600.0 E15 ;Draw the first line
G1 X0.5 F1000.0 ;Move to side a little
G1 Y20 F600 E30 ;Draw the second line
G92 E0 ;Reset Extruder
G92 E0
G92 E0
G1 F1500 E-1
;LAYER_COUNT:275
;LAYER:0
M107
M204 S500
G0 F6000 X62.434 Y33.713 Z0.2
;TYPE:SKIRT
G1 F1500 E0
G1 F1800 X172.415 Y33.729 E4.99315
G1 X173.442 Y33.861 E5.04016
G1 X174.563 Y34.312 E5.09501
G1 X175.39 Y34.849 E5.13978
G1 X176.208 Y35.621 E5.19085
G1 X176.897 Y36.737 E5.25039
G1 X177.14 Y37.301 E5.27827
G1 X177.425 Y38.572 E5.33741
G1 X177.4 Y196.364 E12.50118
G1 X177.271 Y197.326 E12.54524
G1 X176.814 Y198.431 E12.59953
G1 X176.408 Y199.116 E12.63568
G1 X175.61 Y199.976 E12.68895
G1 X174.81 Y200.567 E12.7341
G1 X174.213 Y200.864 E12.76438
G1 X172.772 Y201.287 E12.83256
G1 X62.494 Y201.262 E17.83919
G1 X61.535 Y201.132 E17.88312
G1 X60.445 Y200.693 E17.93647
G1 X59.61 Y200.151 E17.98167
G1 X58.792 Y199.379 E18.03273
G1 X58.103 Y198.263 E18.09228
G1 X57.86 Y197.699 E18.12016
G1 X57.575 Y196.428 E18.1793
G1 X57.6 Y38.632 E25.34325
G1 X57.73 Y37.673 E25.38718
G1 X58.169 Y36.583 E25.44053
G1 X58.711 Y35.748 E25.48573
G1 X59.483 Y34.93 E25.53679
G1 X60.599 Y34.241 E25.59634
G1 X61.163 Y33.998 E25.62422
G1 X62.434 Y33.713 E25.68336
G0 F6000 X62.496 Y34.259
G1 F1800 X172.346 Y34.271 E30.67055
G1 X173.306 Y34.394 E30.7145
G1 X174.309 Y34.798 E30.76359
G1 X175.05 Y35.279 E30.80369
G1 X175.782 Y35.97 E30.8494
G1 X176.395 Y36.953 E30.90199
G1 X176.618 Y37.471 E30.92759
G1 X176.879 Y38.634 E30.98171
G1 X176.859 Y196.292 E38.13939
G1 X176.74 Y197.181 E38.18011
G1 X176.344 Y198.152 E38.22772
G1 X175.965 Y198.791 E38.26145
G1 X175.245 Y199.567 E38.30951
G1 X174.526 Y200.098 E38.35009
G1 X174.014 Y200.353 E38.37606
G1 X172.693 Y200.741 E38.43857
G1 X62.567 Y200.721 E43.4383
G1 X61.674 Y200.6 E43.47921
G1 X60.699 Y200.207 E43.52694
G1 X59.95 Y199.721 E43.56747
G1 X59.218 Y199.03 E43.61317
G1 X58.605 Y198.047 E43.66577
G1 X58.382 Y197.529 E43.69137
G1 X58.121 Y196.366 E43.74548
G1 X58.141 Y38.705 E50.90331
G1 X58.262 Y37.812 E50.94422
G1 X58.655 Y36.837 E50.99195
G1 X59.141 Y36.088 E51.03248
G1 X59.832 Y35.356 E51.07818
G1 X60.815 Y34.743 E51.13078
G1 X61.333 Y34.52 E51.15638
G1 X62.496 Y34.259 E51.21049
G0 F6000 X62.557 Y34.805
G1 F1800 X172.276 Y34.813 E56.19175
G1 X173.171 Y34.928 E56.23271
G1 X174.055 Y35.284 E56.27598
G1 X174.71 Y35.709 E56.31143
G1 X175.357 Y36.32 E56.35183
G1 X175.932 Y37.242 E56.40116
G1 X176.096 Y37.637 E56.42058
G1 X176.333 Y38.695 E56.4698
G1 X176.318 Y196.219 E63.62141
G1 X176.208 Y197.038 E63.65892
G1 X175.838 Y197.946 E63.70344
G1 X175.524 Y198.464 E63.73094
G1 X174.88 Y199.158 E63.77392
G1 X174.202 Y199.659 E63.81219
G1 X173.86 Y199.829 E63.82953
G1 X172.614 Y200.195 E63.88849
G1 X62.641 Y200.18 E68.88128
G1 X61.817 Y200.068 E68.91903
G1 X60.949 Y199.719 E68.9615
G1 X60.29 Y199.291 E68.99718
G1 X59.643 Y198.68 E69.03758
G1 X59.068 Y197.758 E69.08691
G1 X58.904 Y197.363 E69.10633
G1 X58.667 Y196.305 E69.15555
G1 X58.682 Y38.779 E76.30725
G1 X58.794 Y37.955 E76.345
G1 X59.143 Y37.087 E76.38747
G1 X59.571 Y36.428 E76.42315
G1 X60.182 Y35.781 E76.46355
G1 X61.104 Y35.206 E76.51288
G1 X61.499 Y35.042 E76.5323
G1 X62.557 Y34.805 E76.58152
G0 F6000 X62.618 Y35.351
G1 F1800 X172.207 Y35.355 E81.55687
G1 X173.035 Y35.461 E81.59477
G1 X173.801 Y35.77 E81.63227
G1 X174.37 Y36.139 E81.66306
G1 X174.931 Y36.669 E81.6981
G1 X175.433 Y37.465 E81.74082
G1 X175.563 Y37.756 E81.75529
G1 X175.787 Y38.756 E81.80182
G1 X175.777 Y196.146 E88.94734
G1 X175.676 Y196.895 E88.98165
G1 X175.332 Y197.74 E89.02307
G1 X175.086 Y198.134 E89.04416
G1 X174.517 Y198.747 E89.08213
G1 X173.877 Y199.22 E89.11826
G1 X173.706 Y199.305 E89.12693
G1 X172.535 Y199.649 E89.18234
G1 X62.715 Y199.639 E94.16818
G1 X61.96 Y199.536 E94.20277
G1 X61.199 Y199.23 E94.24001
G1 X60.63 Y198.861 E94.2708
G1 X60.069 Y198.331 E94.30584
G1 X59.567 Y197.535 E94.34856
G1 X59.437 Y197.244 E94.36303
G1 X59.213 Y196.244 E94.40956
G1 X59.223 Y38.853 E101.55512
G1 X59.326 Y38.098 E101.58971
G1 X59.632 Y37.337 E101.62695
G1 X60.001 Y36.768 E101.65774
G1 X60.531 Y36.207 E101.69278
G1 X61.327 Y35.705 E101.7355
G1 X61.618 Y35.575 E101.74997
G1 X62.618 Y35.351 E101.7965
G0 F6000 X62.679 Y35.897
G1 F1800 X172.138 Y35.897 E106.76595
G1 X172.895 Y35.994 E106.8006
G1 X173.551 Y36.258 E106.8327
G1 X174.03 Y36.569 E106.85863
G1 X174.506 Y37.019 E106.88837
G1 X174.971 Y37.756 E106.92793
G1 X175.042 Y37.928 E106.93638
G1 X175.241 Y38.817 E106.97774
G1 X175.236 Y196.073 E114.11717
G1 X175.144 Y196.754 E114.14837
G1 X174.861 Y197.464 E114.18307
G1 X174.686 Y197.762 E114.19876
G1 X174.151 Y198.338 E114.23445
G1 X173.552 Y198.781 E114.26828
G1 X172.456 Y199.103 E114.32014
G1 X62.788 Y199.098 E119.29907
G1 X62.103 Y199.005 E119.33046
G1 X61.449 Y198.742 E119.36246
G1 X60.97 Y198.431 E119.38839
G1 X60.494 Y197.981 E119.41813
G1 X60.029 Y197.244 E119.45769
G1 X59.958 Y197.072 E119.46614
G1 X59.759 Y196.183 E119.5075
G1 X59.764 Y38.926 E126.64698
G1 X59.857 Y38.241 E126.67836
G1 X60.12 Y37.587 E126.71037
G1 X60.431 Y37.108 E126.73629
G1 X60.881 Y36.632 E126.76603
G1 X61.618 Y36.167 E126.8056
G1 X61.79 Y36.096 E126.81404
G1 X62.679 Y35.897 E126.8554
G0 F6000 X62.74 Y36.443
G1 F1800 X172.138 Y36.443 E131.82208
G1 X172.756 Y36.527 E131.8504
G1 X173.299 Y36.745 E131.87696
G1 X173.733 Y37.027 E131.90046
G1 X174.081 Y37.368 E131.92258
G1 X174.509 Y38.047 E131.95902
G1 X174.695 Y38.878 E131.99768
G1 X174.695 Y196 E139.13103
G1 X174.612 Y196.615 E139.15921
G1 X174.354 Y197.262 E139.19083
G1 X174.247 Y197.432 E139.19995
G1 X173.785 Y197.929 E139.23076
G1 X173.305 Y198.284 E139.25786
G1 X172.377 Y198.557 E139.30178
G1 X62.862 Y198.557 E144.27377
G1 X62.244 Y198.473 E144.30208
G1 X61.701 Y198.255 E144.32865
G1 X61.267 Y197.973 E144.35215
G1 X60.919 Y197.632 E144.37427
G1 X60.491 Y196.953 E144.41071
G1 X60.305 Y196.122 E144.44937
G1 X60.305 Y39 E151.58272
G1 X60.389 Y38.382 E151.61103
G1 X60.607 Y37.839 E151.6376
G1 X60.889 Y37.405 E151.6611
G1 X61.23 Y37.057 E151.68322
G1 X61.909 Y36.629 E151.71966
G1 X62.74 Y36.443 E151.75832
G0 F6000 X62.801 Y36.989
G1 F1800 X172.138 Y36.989 E156.72223
G1 X172.613 Y37.058 E156.74402
G1 X173.009 Y37.208 E156.76324
G1 X173.368 Y37.433 E156.78248
G1 X173.619 Y37.659 E156.79781
G1 X173.997 Y38.258 E156.82997
G1 X174.149 Y38.939 E156.86165
G1 X174.149 Y196 E163.99223
G1 X174.08 Y196.475 E164.01402
G1 X173.847 Y197.06 E164.04261
G1 X173.385 Y197.557 E164.07342
G1 X173.058 Y197.787 E164.09157
G1 X172.298 Y198.011 E164.12754
G1 X62.862 Y198.011 E169.09594
G1 X62.387 Y197.942 E169.11773
G1 X61.991 Y197.792 E169.13696
G1 X61.632 Y197.567 E169.15619
G1 X61.381 Y197.341 E169.17153
G1 X61.003 Y196.742 E169.20368
G1 X60.851 Y196.061 E169.23536
G1 X60.851 Y39 E176.36594
G1 X60.92 Y38.525 E176.38774
G1 X61.07 Y38.129 E176.40696
G1 X61.295 Y37.77 E176.4262
G1 X61.521 Y37.519 E176.44153
G1 X62.12 Y37.141 E176.47369
G1 X62.801 Y36.989 E176.50536
G0 F6000 X62.862 Y37.535
G1 F1800 X172.138 Y37.535 E181.4665
G1 X172.527 Y37.597 E181.48439
G1 X172.719 Y37.671 E181.49373
G1 X173.078 Y37.896 E181.51296
G1 X173.24 Y38.052 E181.52318
G1 X173.484 Y38.468 E181.54507
G1 X173.603 Y39 E181.56982
G1 X173.603 Y196 E188.69763
G1 X173.541 Y196.389 E188.71552
G1 X173.378 Y196.763 E188.73404
G1 X172.985 Y197.185 E188.76022
G1 X172.821 Y197.287 E188.76899
G1 X172.218 Y197.465 E188.79753
G1 X62.862 Y197.465 E193.7623
G1 X62.473 Y197.403 E193.78019
G1 X62.281 Y197.329 E193.78953
G1 X61.922 Y197.104 E193.80876
G1 X61.76 Y196.948 E193.81897
G1 X61.516 Y196.532 E193.84087
G1 X61.397 Y196 E193.86562
G1 X61.397 Y39 E200.99343
G1 X61.459 Y38.611 E201.01132
G1 X61.533 Y38.419 E201.02066
G1 X61.758 Y38.06 E201.03989
G1 X61.914 Y37.898 E201.0501
G1 X62.33 Y37.654 E201.072
G1 X62.862 Y37.535 E201.09675
G1 F1500 E200.09675
G0 F6000 X62.862 Y38.627
G1 F1500 E201.09675
G1 F1800 X172.138 Y38.627 E206.05789
G1 X172.305 Y38.666 E206.06567
G1 X172.437 Y38.777 E206.0735
G1 X172.511 Y39 E206.08417
G1 X172.511 Y196 E213.21198
G1 X172.472 Y196.167 E213.21977
G1 X172.361 Y196.299 E213.2276
G1 X172.138 Y196.373 E213.23827
G1 X62.862 Y196.373 E218.19941
G1 X62.695 Y196.334 E218.20719
G1 X62.563 Y196.223 E218.21502
G1 X62.489 Y196 E218.22569
G1 X62.489 Y39 E225.3535
G1 X62.528 Y38.833 E225.36129
G1 X62.639 Y38.701 E225.36912
G1 X62.862 Y38.627 E225.37979
G0 F6000 X62.862 Y38.081
G1 F1800 X172.138 Y38.081 E230.34093
G1 X172.429 Y38.134 E230.35436
G1 X172.788 Y38.359 E230.37359
G1 X172.955 Y38.605 E230.38709
G1 X173.057 Y39 E230.40561
G1 X173.057 Y196 E237.53342
G1 X173.004 Y196.291 E237.54685
G1 X172.89 Y196.518 E237.55838
G1 X172.617 Y196.781 E237.57559
G1 X172.138 Y196.919 E237.59823
G1 X62.862 Y196.919 E242.55937
G1 X62.571 Y196.866 E242.57279
G1 X62.212 Y196.641 E242.59203
G1 X62.045 Y196.395 E242.60553
G1 X61.943 Y196 E242.62405
G1 X61.943 Y39 E249.75186
G1 X61.996 Y38.709 E249.76529
G1 X62.221 Y38.35 E249.78453
G1 X62.467 Y38.183 E249.79803
G1 X62.862 Y38.081 E249.81655
G1 F1500 E248.81655
;MESH:portacalendario v2.0.stl
G0 F6000 X62.197 Y117.5
G0 X63.679 Y117.5
;TYPE:WALL-INNER
G1 F1500 E249.81655
G1 F1800 X63.679 Y195.181 E253.34327
G1 X171.317 Y195.181 E258.23005
G1 X171.317 Y39.819 E265.28349
G1 X63.679 Y39.819 E270.17027
G1 X63.679 Y117.5 E273.69699
G0 F6000 X63.133 Y117.5
;TYPE:WALL-OUTER
G1 F1800 X63.133 Y195.727 E277.2485
G1 X171.863 Y195.727 E282.18485
G1 X171.863 Y39.273 E289.28788
G1 X63.133 Y39.273 E294.22423
G1 X63.133 Y117.5 E297.77574
G0 F6000 X63.133 Y117.7
G1 F1500 E296.77574
G0 F6000 X64.141 Y117.5
;TYPE:SKIN
G1 F1500 E297.77574
G1 F1800 X64.141 Y40.281 E301.28149
G1 X170.855 Y40.281 E306.12632
G1 X170.855 Y194.719 E313.13782
G1 X64.141 Y194.719 E317.98264
G1 X64.141 Y117.5 E321.48839
G1 F1500 E320.48839
G0 F6000 X62.197 Y117.5
G0 X62.197 Y194.137
G0 X64.414 Y194.137
G1 F1500 E321.48839
G1 F1800 X64.723 Y194.446 E321.50823
G0 F6000 X65.495 Y194.446
G1 F1800 X64.414 Y193.365 E321.57763
G0 F6000 X64.414 Y192.593
G1 F1800 X66.267 Y194.446 E321.69661
G0 F6000 X67.039 Y194.446
G1 F1800 X64.414 Y191.82 E321.86518
G0 F6000 X64.414 Y191.048
G1 F1800 X67.812 Y194.446 E322.08335
G0 F6000 X68.584 Y194.446
G1 F1800 X64.414 Y190.276 E322.35108
G0 F6000 X64.414 Y189.504
G1 F1800 X69.356 Y194.446 E322.66839
G0 F6000 X70.128 Y194.446
G1 F1800 X64.414 Y188.732 E323.03526
G0 F6000 X64.414 Y187.96
G1 F1800 X70.9 Y194.446 E323.45169
G0 F6000 X71.672 Y194.446
G1 F1800 X64.414 Y187.187 E323.91773
G0 F6000 X64.414 Y186.415
G1 F1800 X72.445 Y194.446 E324.43336
G0 F6000 X73.217 Y194.446
G1 F1800 X64.414 Y185.643 E324.99856
G0 F6000 X64.414 Y184.871
G1 F1800 X73.989 Y194.446 E325.61333
G0 F6000 X74.761 Y194.446
G1 F1800 X64.414 Y184.099 E326.27766
G0 F6000 X64.414 Y183.327
G1 F1800 X75.533 Y194.446 E326.99156
G0 F6000 X76.305 Y194.446
G1 F1800 X64.414 Y182.554 E327.75506
G0 F6000 X64.414 Y181.782
G1 F1800 X77.077 Y194.446 E328.56813
G0 F6000 X77.85 Y194.446
G1 F1800 X64.414 Y181.01 E329.43079
G0 F6000 X64.414 Y180.238
G1 F1800 X78.622 Y194.446 E330.34302
G0 F6000 X79.394 Y194.446
G1 F1800 X64.414 Y179.466 E331.30482
G0 F6000 X64.414 Y178.694
G1 F1800 X80.166 Y194.446 E332.31618
G0 F6000 X80.938 Y194.446
G1 F1800 X64.414 Y177.922 E333.37711
G0 F6000 X64.414 Y177.149
G1 F1800 X81.71 Y194.446 E334.48764
G0 F6000 X82.483 Y194.446
G1 F1800 X64.414 Y176.377 E335.64777
G0 F6000 X64.414 Y175.605
G1 F1800 X83.255 Y194.446 E336.85746
G0 F6000 X84.027 Y194.446
G1 F1800 X64.414 Y174.833 E338.11672
G0 F6000 X64.414 Y174.061
G1 F1800 X84.799 Y194.446 E339.42555
G0 F6000 X85.571 Y194.446
G1 F1800 X64.414 Y173.289 E340.78395
G0 F6000 X64.414 Y172.516
G1 F1800 X86.343 Y194.446 E342.19194
G0 F6000 X87.116 Y194.446
G1 F1800 X64.414 Y171.744 E343.64953
G0 F6000 X64.414 Y170.972
G1 F1800 X87.888 Y194.446 E345.15669
G0 F6000 X88.66 Y194.446
G1 F1800 X64.414 Y170.2 E346.71341
G0 F6000 X64.414 Y169.428
G1 F1800 X89.432 Y194.446 E348.3197
G0 F6000 X90.204 Y194.446
G1 F1800 X64.414 Y168.656 E349.97556
G0 F6000 X64.414 Y167.883
G1 F1800 X90.976 Y194.446 E351.68102
G0 F6000 X91.749 Y194.446
G1 F1800 X64.414 Y167.111 E353.43607
G0 F6000 X64.414 Y166.339
G1 F1800 X92.521 Y194.446 E355.24069
G0 F6000 X93.293 Y194.446
G1 F1800 X64.414 Y165.567 E357.09488
G0 F6000 X64.414 Y164.795
G1 F1800 X94.065 Y194.446 E358.99864
G0 F6000 X94.837 Y194.446
G1 F1800 X64.414 Y164.023 E360.95196
G0 F6000 X64.414 Y163.25
G1 F1800 X95.609 Y194.446 E362.95488
G0 F6000 X96.381 Y194.446
G1 F1800 X64.414 Y162.478 E365.00736
G0 F6000 X64.414 Y161.706
G1 F1800 X97.154 Y194.446 E367.10945
G0 F6000 X97.926 Y194.446
G1 F1800 X64.414 Y160.934 E369.2611
G0 F6000 X64.414 Y160.162
G1 F1800 X98.698 Y194.446 E371.46232
G0 F6000 X99.47 Y194.446
G1 F1800 X64.414 Y159.39 E373.71311
G0 F6000 X64.414 Y158.617
G1 F1800 X100.242 Y194.446 E376.01349
G0 F6000 X101.014 Y194.446
G1 F1800 X64.414 Y157.845 E378.36344
G0 F6000 X64.414 Y157.073
G1 F1800 X101.787 Y194.446 E380.76299
G0 F6000 X102.559 Y194.446
G1 F1800 X64.414 Y156.301 E383.2121
G0 F6000 X64.414 Y155.529
G1 F1800 X103.331 Y194.446 E385.71079
G0 F6000 X104.103 Y194.446
G1 F1800 X64.414 Y154.757 E388.25903
G0 F6000 X64.414 Y153.985
G1 F1800 X104.875 Y194.446 E390.85685
G0 F6000 X105.647 Y194.446
G1 F1800 X64.414 Y153.212 E393.50426
G0 F6000 X64.414 Y152.44
G1 F1800 X106.42 Y194.446 E396.20128
G0 F6000 X107.192 Y194.446
G1 F1800 X64.414 Y151.668 E398.94786
G0 F6000 X64.414 Y150.896
G1 F1800 X107.964 Y194.446 E401.744
G0 F6000 X108.736 Y194.446
G1 F1800 X64.414 Y150.124 E404.58971
G0 F6000 X64.414 Y149.352
G1 F1800 X109.508 Y194.446 E407.48499
G0 F6000 X110.28 Y194.446
G1 F1800 X64.414 Y148.579 E410.42987
G0 F6000 X64.414 Y147.807
G1 F1800 X111.053 Y194.446 E413.42435
G0 F6000 X111.825 Y194.446
G1 F1800 X64.414 Y147.035 E416.46839
G0 F6000 X64.414 Y146.263
G1 F1800 X112.597 Y194.446 E419.562
G0 F6000 X113.369 Y194.446
G1 F1800 X64.414 Y145.491 E422.70518
G0 F6000 X64.414 Y144.719
G1 F1800 X114.141 Y194.446 E425.89792
G0 F6000 X114.913 Y194.446
G1 F1800 X64.414 Y143.946 E429.14026
G0 F6000 X64.414 Y143.174
G1 F1800 X115.685 Y194.446 E432.43217
G0 F6000 X116.458 Y194.446
G1 F1800 X64.414 Y142.402 E435.77367
G0 F6000 X64.414 Y141.63
G1 F1800 X117.23 Y194.446 E439.16475
G0 F6000 X118.002 Y194.446
G1 F1800 X64.414 Y140.858 E442.60539
G0 F6000 X64.414 Y140.086
G1 F1800 X118.774 Y194.446 E446.09559
G0 F6000 X119.546 Y194.446
G1 F1800 X64.414 Y139.313 E449.6354
G0 F6000 X64.414 Y138.541
G1 F1800 X120.318 Y194.446 E453.22477
G0 F6000 X121.091 Y194.446
G1 F1800 X64.414 Y137.769 E456.86374
G0 F6000 X64.414 Y136.997
G1 F1800 X121.863 Y194.446 E460.55228
G0 F6000 X122.635 Y194.446
G1 F1800 X64.414 Y136.225 E464.29038
G0 F6000 X64.414 Y135.453
G1 F1800 X123.407 Y194.446 E468.07805
G0 F6000 X124.179 Y194.446
G1 F1800 X64.414 Y134.681 E471.91529
G0 F6000 X64.414 Y133.908
G1 F1800 X124.951 Y194.446 E475.80212
G0 F6000 X125.724 Y194.446
G1 F1800 X64.414 Y133.136 E479.73856
G0 F6000 X64.414 Y132.364
G1 F1800 X126.496 Y194.446 E483.72456
G0 F6000 X127.268 Y194.446
G1 F1800 X64.414 Y131.592 E487.76012
